X: 43139
T: Winnie Hayes'
R: jig
M: 6/8
K: Adorian
|:BAF E3|FEE EFA|BAF E3|FDD DFA|
BAF E3|FEE E2 e|edB ABd|edB AFE:|
|:Bcd e3|fed e2B|B2e ede|f3 def|
g3 fgf|edB e2 f|edB ABd|edB AFE:|

